svg/bluetooth_transfer.svg

<svg xmlns="http://www.w3.org/2000/svg" viewBox="0 0 24 24"><path d="M14.71 7.71 10.41 12l4.3 4.29L9 22H8v-7.59L3.41 19 2 17.59 7.59 12 2 6.41 3.41 5 8 9.59V2h1zM10 5.83v3.76l1.88-1.88zm1.88 10.46L10 14.41v3.76zM22 8h-2v3h-2V8h-2l3-4zm0 8-3 4-3-4h2v-3h2v3z"/></svg>

<?xml version="1.0" encoding="UTF-8"?><!DOCTYPE svg PUBLIC "-//W3C//DTD SVG 1.1//EN" "http://www.w3.org/Graphics/SVG/1.1/DTD/svg11.dtd"><svg xmlns="http://www.w3.org/2000/svg" xmlns:xlink="http://www.w3.org/1999/xlink" version="1.1" id="mdi-bluetooth-transfer" width="24" height="24" viewBox="0 0 24 24"><path d="M14.71,7.71L10.41,12L14.71,16.29L9,22H8V14.41L3.41,19L2,17.59L7.59,12L2,6.41L3.41,5L8,9.59V2H9L14.71,7.71M10,5.83V9.59L11.88,7.71L10,5.83M11.88,16.29L10,14.41V18.17L11.88,16.29M22,8H20V11H18V8H16L19,4L22,8M22,16L19,20L16,16H18V13H20V16H22Z" /></svg>
